public/images/companies/logo-united-prototype.svg

<svg width="54" height="54" viewBox="0 0 54 54" fill="none" xmlns="http://www.w3.org/2000/svg">
<path fill-rule="evenodd" clip-rule="evenodd" d="M0.00283181 0.922435C0.00294622 0.0940517 0.00477642 0.0921094 0.811916 0.0916525C2.92387 0.0905102 5.0357 0.0911959 7.14765 0.0913101C8.21301 0.0913101 8.21335 0.0914243 8.21335 1.12987C8.21335 13.5536 8.2614 25.9775 8.18269 38.4006C8.16038 41.9185 10.3658 44.9157 14.1482 45.5063C16.624 45.8928 19.0495 45.6806 21.3718 44.7233C23.1608 43.9858 24.5726 42.7925 25.2385 40.9213C25.4684 40.2753 25.5663 39.5512 25.5713 38.8617C25.601 34.7018 25.5858 30.5415 25.5868 26.3812C25.587 25.5257 25.5895 25.5233 26.4448 25.5231C30.4974 25.5221 34.5516 25.4484 38.602 25.5448C42.209 25.6305 44.8735 23.4706 45.6654 20.1385C46.2186 17.8106 46.3324 15.4592 45.3245 13.2088C44.1811 10.6561 42.0461 9.34094 39.4044 8.76432C38.6494 8.59949 37.8594 8.52855 37.0852 8.52684C29.4747 8.50982 21.8644 8.51679 14.2539 8.51633C13.3691 8.51633 13.3677 8.51496 13.3675 7.63917C13.3667 5.35963 13.381 3.07986 13.3573 0.800553C13.3518 0.25774 13.521 0.0803438 14.0726 0.0813719C22.0635 0.0961073 30.0646 -0.157593 38.0426 0.163159C45.7175 0.47169 52.6124 4.98256 53.7666 13.9568C54.2814 17.9603 53.9792 21.8846 52.377 25.6349C50.7437 29.4584 47.8444 31.9375 43.9689 33.3302C41.8691 34.0848 39.6896 34.3718 37.4667 34.375C36.4772 34.3765 35.4876 34.3905 34.4986 34.3698C34.025 34.3598 33.8647 34.5509 33.8702 35.0119C33.8876 36.4933 33.9508 37.9796 33.8623 39.4561C33.5618 44.473 31.5742 48.5941 27.2165 51.3446C25.0948 52.6839 22.7174 53.3596 20.2405 53.7026C17.0474 54.1447 13.8681 54.1432 10.7243 53.3604C5.00481 51.9363 1.13477 47.7012 0.241484 41.8792C0.092412 40.9081 0.0159887 39.9165 0.0127853 38.9343C-0.0075791 32.7794 0.00248849 26.6246 0.00248849 20.4697C0.00248849 13.9539 0.00225978 7.43824 0.00283181 0.922435Z" fill="#334155"/>
</svg>

<svg xmlns="http://www.w3.org/2000/svg" width="54" height="54" fill="currentColor" viewBox="0 0 54 54">
  <path fill-rule="evenodd" d="M.003.922c0-.828.002-.83.809-.83h6.336c1.065 0 1.065 0 1.065 1.038 0 12.424.048 24.848-.03 37.27-.023 3.519 2.183 6.516 5.965 7.106 2.476.387 4.901.175 7.224-.783 1.789-.737 3.2-1.93 3.866-3.802.23-.646.328-1.37.333-2.06.03-4.16.015-8.32.016-12.48 0-.855.003-.858.858-.858 4.052 0 8.107-.075 12.157.022 3.607.085 6.272-2.074 7.063-5.407.554-2.327.667-4.679-.34-6.93-1.144-2.552-3.279-3.867-5.92-4.444a11.062 11.062 0 0 0-2.32-.237c-7.61-.017-15.22-.01-22.831-.01-.885 0-.886-.002-.886-.878-.001-2.28.013-4.56-.01-6.838-.006-.543.163-.72.715-.72 7.99.015 15.992-.239 23.97.082 7.675.309 14.57 4.82 15.724 13.794.514 4.003.212 7.928-1.39 11.678-1.633 3.823-4.533 6.302-8.408 7.695-2.1.755-4.28 1.042-6.502 1.045-.99.002-1.98.016-2.968-.005-.474-.01-.634.18-.629.642.018 1.481.08 2.968-.008 4.444-.3 5.017-2.288 9.138-6.646 11.889-2.121 1.339-4.499 2.015-6.976 2.358-3.193.442-6.372.44-9.516-.343-5.72-1.424-9.59-5.659-10.483-11.48a19.907 19.907 0 0 1-.228-2.946c-.02-6.155-.01-12.31-.01-18.464V.922Z" clip-rule="evenodd"/>
</svg>
